img/house.svg

<svg xmlns="http://www.w3.org/2000/svg" xmlns:xlink="http://www.w3.org/1999/xlink" viewBox="0 0 57.4 84.4" enable-background="new 0 0 57.4 84.4">
    <symbol id="housea" viewBox="-5.2 -5.6 10.4 11.3">
        <path fill="#fff" d="M-5.2 5.6v-11.2h10.4v11.2z" />
        <path fill="#F5D76C" d="M.3.4h4v4.3h-4zM-.6-.4h-3.7v-4.3h3.7zM.3-.4v-4.3h4v4.3zM-.6 4.7h-3.7v-4.3h3.7z" />
    </symbol>
    <g>
        <path fill="#F1627A" d="M29.8 13.8l-24.4 24.3-.1.1h.1v42.300000000000004h48.5v-42.4l-24.1-24.3z" />
        <path fill="#E12346" d="M19.1 12.4h-10.2v3.4h1.7v-.1h6.7v.1h1.8z" />
        <path fill="#F1627A" d="M10.6 15.7v12.799999999999999h6.7v-12.799999999999999z" />
        <path fill="#fff" d="M53.8 41.7c-.9 0-1.8-.4-2.5-1.1l-21.6-21.8-21.9 21.8c-1.4 1.4-3.7 1.4-5.1 0-1.4-1.4-1.4-3.7 0-5.1l24.4-24.3c.7-.7 1.6-1 2.5-1 .9 0 1.9.4 2.5 1.1l24.1 24.3c1.4 1.4 1.4 3.7 0 5.1-.6.6-1.5 1-2.4 1z" />
        <path fill="#E12346" d="M24.8 63.9h9.4v16.6h-9.4z" />
        <path fill="#F596AC" d="M34.6 81h-10.2v-17.6h10.3v17.6zm-9.3-.9h8.5v-15.8h-8.5v15.8z" />
        <use xlink:href="#housea" width="10.4" height="11.3" x="-5.2" y="-5.6" transform="matrix(1 0 0 -1 14.681 69.173)" overflow="visible" />
        <path fill="#fff" d="M21.8 4.4h-3.7v-2.6h3c.5 0 .9-.4.9-.9s-.4-.9-.9-.9h-12.4c-.5 0-.9.4-.9.9s.4.9.9.9h7.6v2.6h-5.7c-.5 0-.9.4-.9.9s.4.9.9.9h2.6v1.8h-3.4c-.5 0-.9.4-.9.9s.4.9.9.9h3.8c.1.1.3.1.4.1s.3 0 .4-.1h3.8c.5 0 .9-.4.9-.9s-.3-.9-.8-.9h-3.3v-1.9h6.8c.5 0 .9-.4.9-.9 0-.4-.4-.8-.9-.8zM2.9 84.4h20.7c-1.6-4.7-8.9-8.3-17.7-8.3-2.1 0-3.8.1-5.6.5l2.6 7.8zM36.5 81.7c-1.7-1.8-5.1-3-9-3-3.9 0-7.3 1.2-9 3h18z" />
        <path fill="#BFD763" d="M29.5 73.2c-2.7 0-4.8-2.2-4.8-4.8s2.2-4.8 4.8-4.8 4.8 2.2 4.8 4.8-2.1 4.8-4.8 4.8zm0-7.5c-1.5 0-2.6 1.2-2.6 2.6 0 1.5 1.2 2.6 2.6 2.6 1.5 0 2.6-1.2 2.6-2.6.1-1.4-1.1-2.6-2.6-2.6z" />
        <circle fill="#fff" cx="29.5" cy="64.6" r=".5" />
        <circle fill="#fff" cx="33.3" cy="68.4" r=".5" />
        <circle fill="#fff" cx="25.8" cy="68.4" r=".5" />
        <circle fill="#fff" cx="32.2" cy="71" r=".5" />
        <circle fill="#fff" cx="26.9" cy="65.7" r=".5" />
        <circle fill="#fff" cx="26.9" cy="71" r=".5" />
        <circle fill="#fff" cx="32.2" cy="65.7" r=".5" />
        <path fill="#7D6A82" d="M30.9 70.7l-1 .7h-.7v.1l-1-.8v2.3l1-.7v.1h.7v-.1l1 .7z" />
        <use xlink:href="#housea" width="10.4" height="11.3" x="-5.2" y="-5.6" transform="matrix(1 0 0 -1 14.681 50.199)" overflow="visible" />
        <use xlink:href="#housea" width="10.4" height="11.3" x="-5.2" y="-5.6" transform="matrix(1 0 0 -1 29.506 50.223)" overflow="visible" />
        <use xlink:href="#housea" width="10.4" height="11.3" x="-5.2" y="-5.6" transform="matrix(1 0 0 -1 43.475 50.223)" overflow="visible" />
        <use xlink:href="#housea" width="10.4" height="11.3" x="-5.2" y="-5.6" transform="matrix(1 0 0 -1 43.475 69.173)" overflow="visible" />
        <use xlink:href="#housea" width="10.4" height="11.3" x="-5.2" y="-5.6" transform="matrix(1 0 0 -1 29.543 32.007)" overflow="visible" />
        <path fill="#E12346" d="M23.1 37.2h12.8v3.3h-12.8zM3.8 57.4h51.6v3.3h-51.6z" />
    </g>
</svg>

<svg xmlns="http://www.w3.org/2000/svg" xmlns:xlink="http://www.w3.org/1999/xlink" viewBox="0 0 57.4 84.4"><symbol id="a" viewBox="-5.2 -5.6 10.4 11.3"><path fill="#fff" d="M-5.2 5.6V-5.6H5.2V5.6z"/><path fill="#F5D76C" d="M.3.4h4v4.3h-4zm-.9-.8h-3.7v-4.3h3.7zm.9 0v-4.3h4v4.3zm-.9 5.1h-3.7V.4h3.7z"/></symbol><path fill="#F1627A" d="M29.8 13.8L5.4 38.1l-.1.1h.1v42.3h48.5V38.1L29.8 13.8z"/><path fill="#E12346" d="M19.1 12.4H8.9v3.4h1.7v-.1h6.7v.1h1.8z"/><path fill="#F1627A" d="M10.6 15.7v12.8h6.7V15.7z"/><path fill="#fff" d="M53.8 41.7c-.9 0-1.8-.4-2.5-1.1L29.7 18.8 7.8 40.6c-1.4 1.4-3.7 1.4-5.1 0-1.4-1.4-1.4-3.7 0-5.1l24.4-24.3c.7-.7 1.6-1 2.5-1 .9 0 1.9.4 2.5 1.1l24.1 24.3c1.4 1.4 1.4 3.7 0 5.1-.6.6-1.5 1-2.4 1z"/><path fill="#E12346" d="M24.8 63.9h9.4v16.6h-9.4z"/><path fill="#F596AC" d="M34.6 81H24.4V63.4h10.3V81zm-9.3-.9h8.5V64.3h-8.5v15.8z"/><use xlink:href="#a" width="10.4" height="11.3" x="-5.2" y="-5.6" transform="matrix(1 0 0 -1 14.681 69.173)" overflow="visible"/><path fill="#fff" d="M21.8 4.4h-3.7V1.8h3c.5 0 .9-.4.9-.9s-.4-.9-.9-.9H8.7c-.5 0-.9.4-.9.9s.4.9.9.9h7.6v2.6h-5.7c-.5 0-.9.4-.9.9s.4.9.9.9h2.6V8H9.8c-.5 0-.9.4-.9.9s.4.9.9.9h3.8c.1.1.3.1.4.1s.3 0 .4-.1h3.8c.5 0 .9-.4.9-.9s-.3-.9-.8-.9H15V6.1h6.8c.5 0 .9-.4.9-.9 0-.4-.4-.8-.9-.8zm-18.9 80h20.7c-1.6-4.7-8.9-8.3-17.7-8.3-2.1 0-3.8.1-5.6.5l2.6 7.8zm33.6-2.7c-1.7-1.8-5.1-3-9-3-3.9 0-7.3 1.2-9 3h18z"/><path fill="#BFD763" d="M29.5 73.2c-2.7 0-4.8-2.2-4.8-4.8s2.2-4.8 4.8-4.8 4.8 2.2 4.8 4.8-2.1 4.8-4.8 4.8zm0-7.5c-1.5 0-2.6 1.2-2.6 2.6 0 1.5 1.2 2.6 2.6 2.6 1.5 0 2.6-1.2 2.6-2.6.1-1.4-1.1-2.6-2.6-2.6z"/><circle fill="#fff" cx="29.5" cy="64.6" r=".5"/><circle fill="#fff" cx="33.3" cy="68.4" r=".5"/><circle fill="#fff" cx="25.8" cy="68.4" r=".5"/><circle fill="#fff" cx="32.2" cy="71" r=".5"/><circle fill="#fff" cx="26.9" cy="65.7" r=".5"/><circle fill="#fff" cx="26.9" cy="71" r=".5"/><circle fill="#fff" cx="32.2" cy="65.7" r=".5"/><path fill="#7D6A82" d="M30.9 70.7l-1 .7h-.7v.1l-1-.8V73l1-.7v.1h.7v-.1l1 .7z"/><use xlink:href="#a" width="10.4" height="11.3" x="-5.2" y="-5.6" transform="matrix(1 0 0 -1 14.681 50.199)" overflow="visible"/><use xlink:href="#a" width="10.4" height="11.3" x="-5.2" y="-5.6" transform="matrix(1 0 0 -1 29.506 50.223)" overflow="visible"/><use xlink:href="#a" width="10.4" height="11.3" x="-5.2" y="-5.6" transform="matrix(1 0 0 -1 43.475 50.223)" overflow="visible"/><use xlink:href="#a" width="10.4" height="11.3" x="-5.2" y="-5.6" transform="matrix(1 0 0 -1 43.475 69.173)" overflow="visible"/><use xlink:href="#a" width="10.4" height="11.3" x="-5.2" y="-5.6" transform="matrix(1 0 0 -1 29.543 32.007)" overflow="visible"/><path fill="#E12346" d="M23.1 37.2h12.8v3.3H23.1zM3.8 57.4h51.6v3.3H3.8z"/></svg>
